!!!!SEGMENT: pl-cz--ii-16--004_szlagorski-walenty--talnce-walz-4.krn
!!!cenid: 18xx:1068
!!!COM: Szlagórski, Walenty
!!!COM-rismID:
!!!CDT: 1801-1863/07/16
!!!CNT: Polish
!!!GTL: Tańce
!!!OTL: Walz 4
!!!PDT:
!!!AGN: Secular; Waltz
!!!SMS-siglum: PL-CZ
!!!SMS-shelfmark: II-16
!!!SMS-shelfwork: 004 G
!!!SMS-variant:
!!!SMS-altvar:
!!!NIFC-rismSourceID: 300001297
!!!NIFC-islandoraID: pl-cz:32636
!!!URL-pdf-islandora: https://repozytorium.nifc.pl/islandora/object/pl-cz%3A32636/datastream/PDF/view
!!!URL-scan:
!!!ONB-nifc: UWAGA: zbiór zawiera Walce nr 1-5, Galop, Mazury nr 1-4
!!!AIN: 1 cbass 2 clars 1 clrno 2 cor 1 flt 2 violn
!!!key: D
**kern	**dynam	**kern	**dynam	**kern	**dynam	**kern	**kern	**dynam	**kern	**dynam	**kern	**dynam	**kern	**dynam	**kern
*group3	*	*group3	*	*group3	*	*group2	*group2	*	*group2	*	*group1	*	*group1	*	*group1
*part9	*part9	*part8	*part8	*part7	*part7	*part6	*part5	*part5	*part4	*part4	*part3	*part3	*part2	*part2	*part1
*staff9	*	*staff8	*	*staff7	*	*staff6	*staff5	*	*staff4	*	*staff3	*	*staff2	*	*staff1
*>[A,B,A]	*>[A,B,A]	*>[A,B,A]	*>[A,B,A]	*>[A,B,A]	*>[A,B,A]	*>[A,B,A]	*>[A,B,A]	*>[A,B,A]	*>[A,B,A]	*>[A,B,A]	*>[A,B,A]	*>[A,B,A]	*>[A,B,A]	*>[A,B,A]	*>[A,B,A]
*>A	*>A	*>A	*>A	*>A	*>A	*>A	*>A	*>A	*>A	*>A	*>A	*>A	*>A	*>A	*>A
*I"Baſso	*	*I"Violino 2.do	*	*I"Violino 1mo	*	*I"Clarino. in D.	*I"Corno 2do in D.	*	*I"Corno 1mo in D.	*	*I"Clarinetto 2do in A.	*	*I"Clarinetto 1mo in A.	*	*I"Flauto
*mI"Contrabasso	*	*mI"Violino II	*	*mI"Violino I	*	*mI"Clarino in D	*mI"Corno II in D	*	*mI"Corno I in D	*	*mI"Clarinetto II in A	*	*mI"Clarinetto I in A	*	*
*I'cb	*	*I'vl 2	*	*I'vl 1	*	*I'clno in D	*I'cor 2 in D	*	*I'cor 1 in D	*	*I'cl 2 in A	*	*I'cl 1 in A	*	*I'fl
*Icbass	*	*Ivioln	*	*Ivioln	*	*Iclrno	*Icor	*	*Icor	*	*Iclars	*	*Iclars	*	*Iflt
*ICstr	*	*ICstr	*	*ICstr	*	*ICbras	*ICbras	*	*ICbras	*	*ICww	*	*ICww	*	*ICww
*	*	*	*	*	*	*tacet	*	*	*	*	*	*	*	*	*
*clefF4	*	*clefG2	*	*clefG2	*	*clefG2	*clefG2	*	*clefG2	*	*clefG2	*	*clefG2	*	*clefG2
*	*	*	*	*	*	*ITrd-1c-2	*ITrd6c10	*	*ITrd6c10	*	*ITrd2c3	*	*ITrd2c3	*	*
*k[f#c#]	*	*k[f#c#]	*	*k[f#c#]	*	*k[f#c#]	*k[f#c#]	*	*k[f#c#]	*	*k[f#c#]	*	*k[f#c#]	*	*k[f#c#]
*D:	*	*D:	*	*D:	*	*D:	*D:	*	*D:	*	*D:	*	*D:	*	*D:
*M3/4	*	*M3/4	*	*M3/4	*	*M3/4	*M3/4	*	*M3/4	*	*M3/4	*	*M3/4	*	*M3/4
=1	=1	=1	=1	=1	=1	=1	=1	=1	=1	=1	=1	=1	=1	=1	=1
*	*	*	*	*^	*	*	*	*	*	*	*	*	*	*	*
!	!	!	!	!	!	!	!	!	!	!	!	!LO:TX:a:t=8:mod=	!	!LO:SIC:s=4a\:v	!	!
!	!	!	!	!	!	!	!LO:TX:a:i:t=4 Tacet:mod=	!LO:TX:a:t=4:mod=	!	!LO:TX:a:t=4:mod=	!	!LO:TX:t=P:problem=dodatkowy znak een:mod=	!	!LO:TX:t=P:problem=dodatkowy znak een:mod=	!	!
4D\	.	4r	.	4aa/	4r	.	2.ryy	0.r	.	0.r	.	0.r	.	4a'\	.	4aa\
!	!	!	!	!	!	!	!	!	!	!	!	!	!	!LO:SIC:s=4b\:v	!	!
4r	.	4d/	.	4bb/	4f#\	.	.	.	.	.	.	.	.	4b'\	.	4bb\
!	!	!	!	!	!	!	!	!	!	!	!	!	!	!LO:SIC:s=4cc#\:v	!	!
4r	.	4d/	.	4ccc#/	4f#\	.	.	.	.	.	.	.	.	4cc#X'\	.	4ccc#\
=2	=2	=2	=2	=2	=2	=2	=2	=2	=2	=2	=2	=2	=2	=2	=2	=2
!	!	!	!	!	!	!	!	!	!	!	!	!	!	!LO:MO:mod=*null:null	!	!LO:MO:mod=*null:null
*	*	*rep	*	*	*	*	*	*	*	*	*	*	*	*2\right	*	*2\right
4D\	.	4r	.	2ddd/	4r	.	2.ryy	.	.	.	.	.	.	2dd\	.	2ddd\
4r	.	4d/	.	.	4f#\	.	.	.	.	.	.	.	.	.	.	.
4r	.	4d/	.	4ff#/	4f#\	.	.	.	.	.	.	.	.	4f#\	.	4ff#\
*	*	*Xrep	*	*	*	*	*	*	*	*	*	*	*	*	*	*
=3	=3	=3	=3	=3	=3	=3	=3	=3	=3	=3	=3	=3	=3	=3	=3	=3
4D\	.	4r	.	4ff#/	4r	.	2.ryy	.	.	.	.	.	.	4f#\	.	4ff#\
4r	.	4d/	.	4gg/	4f#\	.	.	.	.	.	.	.	.	4g\	.	4gg\
4r	.	4d/	.	4gg#X/	4f#\	.	.	.	.	.	.	.	.	4g#\	.	4gg#X\
=4	=4	=4	=4	=4	=4	=4	=4	=4	=4	=4	=4	=4	=4	=4	=4	=4
!	!	!LO:TX:t=P:problem:brak taktu nr 4:mod=	!	!	!	!	!	!	!	!	!	!	!	!	!	!
!	!	!LO:SIC:s=4r:v	!	!	!	!	!	!	!	!	!	!	!	!	!	!
4D\	.	4ryy	.	2aa/	4r	.	2.ryy	.	.	.	.	.	.	2a\	.	2aa\
!	!	!LO:SIC:s=4d/:v	!	!	!	!	!	!	!	!	!	!	!	!	!	!
4r	.	4ryy	.	.	4f#\	.	.	.	.	.	.	.	.	.	.	.
!	!	!LO:SIC:s=4d/:v	!	!	!	!	!	!	!	!	!	!	!	!	!	!
4r	.	4ryy	.	4dd/	4f#\	.	.	.	.	.	.	.	.	4d/	.	4dd\
=5	=5	=5	=5	=5	=5	=5	=5	=5	=5	=5	=5	=5	=5	=5	=5	=5
!	!	!	!	!	!	!	!	!LO:MO:mod=*null:null	!	!LO:MO:mod=*null:null	!	!	!	!	!	!
*	*	*	*	*	*	*	*	*2\right	*	*2\right	*	*	*	*	*	*
!	!	!	!	!	!	!	!	!	!LO:DY:rj	!	!LO:DY:rj	!	!	!	!	!
4E\	.	4d 4B/	.	4ee/	4g#X\	.	2.ryy	2d\	p	2e\	p	0.r	.	4e\	.	4ee\
4r	.	4d 4B/	.	4ff#/	4g#\	.	.	.	.	.	.	.	.	4f#\	.	4ff#\
4r	.	4d 4B/	.	4ee/	4g#\	.	.	(<4d\	.	[4e\	.	.	.	4e\	.	4ee\
=6	=6	=6	=6	=6	=6	=6	=6	=6	=6	=6	=6	=6	=6	=6	=6	=6
!	!	!	!	!	!LO:MO:mod=*null:null	!	!	!	!	!	!	!	!	!	!	!
*	*	*	*	*	*2\right	*	*	*	*	*	*	*	*	*	*	*
!	!	!	!	!	!LO:SIC:s=2gni\:v	!	!	!	!	!	!	!	!	!	!	!
4AA/	.	2e 2c#/	.	2aa/	2gn\	.	2.ryy	2A/)	.	2e\]	.	.	.	2a 2A\	.	2aa\
4r	.	.	.	.	.	.	.	.	.	.	.	.	.	.	.	.
4r	.	4e 4c#/	.	4aa/	4g\	.	.	4A/	.	4e\	.	.	.	4aa 4a\	.	4aa\
=7	=7	=7	=7	=7	=7	=7	=7	=7	=7	=7	=7	=7	=7	=7	=7	=7
*	*	*rep	*	*	*	*	*	*	*	*	*	*	*	*	*	*
!	!	!	!	!	!	!	!	!	!	!	!	!	!	!LO:MO:mod=!null:null	!	!
!	!	!	!	!LO:SIC:s=4.gg/:v	!	!	!	!	!	!	!	!	!	!LO:N:vis=4	!	!LO:SIC:s=4.gg\:v
4D\	.	4r	.	4.ggn/	4r	.	2.ryy	2F#/	.	2d\	.	.	.	4.gg 4.g\	.	4.ggn\
4r	.	4d/	.	.	4f#\	.	.	.	.	.	.	.	.	.	.	.
!	!	!	!	!LO:SIC:s=(8ff#/L:v	!	!	!	!	!	!	!	!	!	!	!	!LO:SIC:s=(8ff#\L:v
.	.	.	.	8ff#/L	.	.	.	.	.	.	.	.	.	(8ff#L 8f#\	.	8ff#\L
4r	.	4d/	.	8ee/	4f#\	.	.	4F#/	.	4d\	.	.	.	8ee 8e\	.	8ee\
!	!	!	!	!LO:SIC:s=8ff#/J):v	!	!	!	!	!	!	!	!	!	!	!	!LO:SIC:s=8ff#\J):v
.	.	.	.	8ff#/J	.	.	.	.	.	.	.	.	.	8ff#J 8f#\)	.	8ff#\J
*	*	*Xrep	*	*	*	*	*	*	*	*	*	*	*	*	*	*
=8	=8	=8	=8	=8	=8	=8	=8	=8	=8	=8	=8	=8	=8	=8	=8	=8
*	*	*rep	*	*	*	*	*	*	*	*	*	*	*	*	*	*
4D\	.	4r	.	2dd/	4r	.	2.ryy	4F#/	.	4d\	.	.	.	2dd 2d\	.	2dd\
4r	.	4d/	.	.	4f#\	.	.	4r	.	4r	.	.	.	.	.	.
4r	.	4d/	.	4aa/	4f#\	.	.	4r	.	4r	.	.	.	4a\	.	4aa\
*	*	*Xrep	*	*	*	*	*	*	*	*	*	*	*	*	*	*
!	!	!	!	!LO:LB:g=original	!LO:LB:g=original	!	!	!	!	!	!	!	!	!	!	!
=9	=9	=9	=9	=9	=9	=9	=9	=9	=9	=9	=9	=9	=9	=9	=9	=9
*	*	*rep	*	*	*	*	*	*	*	*	*	*	*	*	*	*
!	!	!	!	!	!	!	!	!LO:TX:a:t=4:mod=	!	!	!	!	!	!	!	!
4D\	.	4r	.	4aa/	4r	.	2.ryy	0.r	.	0.r	.	2.f#/	.	4a\	.	4aa\
4r	.	4d/	.	4bb/	4f#\	.	.	.	.	.	.	.	.	4b\	.	4bb\
4r	.	4d/	.	4ccc#/	4f#\	.	.	.	.	.	.	.	.	4cc#\	.	4ccc#\
*	*	*Xrep	*	*	*	*	*	*	*	*	*	*	*	*	*	*
!	!	!	!	!	!	!	!	!	!	!	!	!	!	!LO:LB:g=original	!	!
=10	=10	=10	=10	=10	=10	=10	=10	=10	=10	=10	=10	=10	=10	=10	=10	=10
4D\	.	4r	.	2ddd/	4r	.	2.ryy	.	.	.	.	2f#/	.	2dd\	.	2ddd\
4r	.	4d/	.	.	4f#\	.	.	.	.	.	.	.	.	.	.	.
4r	.	4d/	.	4ff#/	4f#\	.	.	.	.	.	.	4r	.	4f#\	.	4ff#\
=11	=11	=11	=11	=11	=11	=11	=11	=11	=11	=11	=11	=11	=11	=11	=11	=11
*	*	*rep	*	*	*	*	*	*	*	*	*	*	*	*	*	*
4G\	.	4r	.	4ee/	4r	.	2.ryy	.	.	.	.	2.e/	.	4e/	.	4ee\
4r	.	4e 4B/	.	4gg/	4g\	.	.	.	.	.	.	.	.	4g/	.	4gg\
4r	.	4e 4B/	.	4bb/	4g\	.	.	.	.	.	.	.	.	4b\	.	4bb\
*	*	*Xrep	*	*	*	*	*	*	*	*	*	*	*	*	*	*
!	!	!	!	!	!	!	!	!	!	!	!	!	!	!	!	!LO:LB:g=original
=12	=12	=12	=12	=12	=12	=12	=12	=12	=12	=12	=12	=12	=12	=12	=12	=12
4G\	.	4r	.	2eee/	4r	.	2.ryy	.	.	.	.	2.g/	.	2ee\	.	2eee\
4r	.	4e 4B/	.	.	4g\	.	.	.	.	.	.	.	.	.	.	.
4r	.	4e 4B/	.	4ddd/	4g\	.	.	.	.	.	.	.	.	4dd\	.	4ddd\
!LO:LB:g=original	!	!LO:LB:g=original	!	!	!	!	!	!	!	!	!	!	!	!	!	!
=13	=13	=13	=13	=13	=13	=13	=13	=13	=13	=13	=13	=13	=13	=13	=13	=13
!	!LO:DY:t= :mod=%s	!	!LO:DY:t= :mod=%s	!	!	!	!	!	!	!	!	!	!	!	!	!
!	!LO:MO:mod=!LO&colon;DY&colon;ed=brack	!	!LO:MO:mod=!LO&colon;DY&colon;ed=brack	!	!	!	!	!	!	!	!	!	!	!	!	!
!	!null	!	!null	!	!	!LO:DY:rj	!	!	!	!	!	!	!	!	!	!
4A\	ff	4e 4A/	ff	4ccc#/	4g\	ff	2.ryy	2.A/	.	2.e\	.	4g\	.	4cc#\	.	4ccc#\
4r	.	4e 4A/	.	8aa/L	8g\L	.	.	.	.	.	.	4r	.	8a\L	.	8aa\L
.	.	.	.	8aa/J	8g\J	.	.	.	.	.	.	.	.	8a\J	.	8aa\J
4r	.	4e 4A/	.	4aa/	4ryy	.	.	.	.	.	.	4r	.	4a\	.	4aa\
=14	=14	=14	=14	=14	=14	=14	=14	=14	=14	=14	=14	=14	=14	=14	=14	=14
4D\	.	4d 4A/	.	4ddd/	4f#\	.	2.ryy	2.d\	.	2.f#\	.	4f#/	.	4dd\	.	4ddd\
4r	.	4d 4A/	.	8aa/L	4f#\	.	.	.	.	.	.	4r	.	8a\L	.	8aa\L
.	.	.	.	8aa/J	.	.	.	.	.	.	.	.	.	8a\J	.	8aa\J
4r	.	4d 4A/	.	4aa/	4f#\	.	.	.	.	.	.	4r	.	4a\	.	4aa\
=15	=15	=15	=15	=15	=15	=15	=15	=15	=15	=15	=15	=15	=15	=15	=15	=15
4AA/	.	4e 4A/	.	4bb/	4g\	.	2.ryy	4A\	.	4e\	.	4g/	.	4b\	.	4bb\
4A\	.	4e 4A/	.	8aa/L	4g\	.	.	4A\	.	4e\	.	4r	.	8a\L	.	8aa\L
.	.	.	.	8aa/J	.	.	.	.	.	.	.	.	.	8a\J	.	8aa\J
4A\	.	4e 4A/	.	4aa/	4g\	.	.	4A\	.	4e\	.	4r	.	4a\	.	4aa\
!	!	!	!	!	!	!	!	!	!	!LO:LB:g=original	!	!	!	!	!	!
=16	=16	=16	=16	=16	=16	=16	=16	=16	=16	=16	=16	=16	=16	=16	=16	=16
4D\	.	2d 2A/	.	2ddd/	2f#\	.	2.ryy	2F#/	.	2d\	.	2f#/	.	2dd\	.	2ddd\
4d\	.	.	.	.	.	.	.	.	.	.	.	.	.	.	.	.
!	!	!	!	!	!LO:TX:t=P:problem:brak pauzy 4r:mod=	!	!	!LO:TX:t=P:problem:brak pauzy 4r:mod=	!	!LO:TX:t=P:problem:brak pauzy 4r:mod=	!	!	!	!	!	!
4r	.	4r	.	4r	4ryy	.	.	4ryy	.	4ryy	.	4r	.	4r	.	4r
!!LO:TX:a:B:t= :mod=Fine:rj
!LO:TX:a:t=Fine:rj:mod=	!	!LO:TX:a:t=Fine:rj:mod=	!	!LO:TX:a:t=Fine:rj:mod=	!	!	!	!LO:TX:a:t=Fine:rj:mod=	!	!LO:TX:a:t=Fin:rj:mod=	!	!LO:TX:a:t=Fine:rj:mod=	!	!	!	!LO:TX:a:t=Fine:rj:mod=
!	!	!LO:MO:mod==17||;	!	!	!	!	!	!	!	!	!	!	!	!LO:MO:mod==17||;	!	!LO:MO:mod==17||;
=17||;	=17||;	=17||	=17||;	=17||;	=17||	=17||	=17||	=17||;	=17||	=17||;	=17||	=17||;	=17||	=17||	=17||	=17||
*>B	*>B	*>B	*>B	*>B	*>B	*>B	*>B	*>B	*>B	*>B	*>B	*>B	*>B	*>B	*>B	*>B
!	!	!	!	!	!	!	!	!	!	!	!	!LO:TX:a:t=12:mod=	!	!	!	!
4AA/	.	4r	.	2.aa/	4r	.	2.ryy	0.r	.	0.r	.	0.r	.	2.a\	p	2.aa\
4r	.	4e 4A/	.	.	4g\	.	.	.	.	.	.	.	.	.	.	.
4r	.	4e 4A/	.	.	4g\	.	.	.	.	.	.	.	.	.	.	.
=18	=18	=18	=18	=18	=18	=18	=18	=18	=18	=18	=18	=18	=18	=18	=18	=18
*	*	*rep	*	*	*	*	*	*	*	*	*	*	*	*	*	*
!	!	!	!	!LO:SIC:s=(4gg/:v	!	!	!	!	!	!	!	!	!	!LO:SIC:s=(4g/:v	!	!
4A\	.	4r	.	4gg/	4r	.	2.ryy	.	.	.	.	.	.	4g/	.	(4gg\
4r	.	4e 4A/	.	4ee/	4g\	.	.	.	.	.	.	.	.	4e/	.	4ee\
!	!	!	!	!LO:SIC:s=4ff#/):v	!	!	!	!	!	!	!	!	!	!LO:SIC:s=4f#/):v	!	!
4r	.	4e 4A/	.	4ff#/	4g\	.	.	.	.	.	.	.	.	4f#/	.	4ff#\)
*	*	*Xrep	*	*	*	*	*	*	*	*	*	*	*	*	*	*
=19	=19	=19	=19	=19	=19	=19	=19	=19	=19	=19	=19	=19	=19	=19	=19	=19
4D\	.	4r	.	2.dd/	4r	.	2.ryy	.	.	.	.	.	.	(2.d/	.	2.dd\
4r	.	4d 4A/	.	.	4f#\	.	.	.	.	.	.	.	.	.	.	.
4r	.	4d 4A/	.	.	4f#\	.	.	.	.	.	.	.	.	.	.	.
!	!	!	!	!	!	!	!	!	!	!	!	!	!	!LO:LB:g=original	!	!
=20	=20	=20	=20	=20	=20	=20	=20	=20	=20	=20	=20	=20	=20	=20	=20	=20
*	*	*rep	*	*	*	*	*	*	*	*	*	*	*	*	*	*
!	!	!	!	!	!	!	!	!	!	!	!	!	!	!LO:TX:t=P:problem=brak zakończenia łuku:mod=	!	!
4d\	.	4r	.	2.ddd/	4r	.	2.ryy	.	.	.	.	.	.	2.dd\)	.	2.ddd\
4r	.	4d 4A/	.	.	4f#\	.	.	.	.	.	.	.	.	.	.	.
4r	.	4d 4A/	.	.	4f#\	.	.	.	.	.	.	.	.	.	.	.
*	*	*Xrep	*	*	*	*	*	*	*	*	*	*	*	*	*	*
=21	=21	=21	=21	=21	=21	=21	=21	=21	=21	=21	=21	=21	=21	=21	=21	=21
!	!	!	!	!	!	!	!	!	!	!LO:SIC:s=[2.e\	!	!	!	!	!	!
4A\	.	4r	.	(<4ccc#/	4r	.	2.ryy	[>2.A/	.	2.e\	.	0.r	.	(4cc#\	.	(4ccc#\
4r	.	4e 4A/	.	4ddd/)	4g\	.	.	.	.	.	.	.	.	4dd\)	.	4ddd\)
4r	.	4e 4A/	.	4eee'/	4g\	.	.	.	.	.	.	.	.	4ee'\	.	4eee'\
=22	=22	=22	=22	=22	=22	=22	=22	=22	=22	=22	=22	=22	=22	=22	=22	=22
*	*	*rep	*	*	*	*	*	*	*	*	*	*	*	*	*	*
!	!	!	!	!	!	!	!	!	!	!LO:SIC:s=2.e\]	!	!	!	!LO:SIC:s=(4g/:v	!	!
4A\	.	4r	.	(<4gg/	4r	.	2.ryy	2.A/]	.	2.e\	.	.	.	4g/	.	(4gg\
!	!	!	!	!	!	!	!	!	!	!	!	!	!	!LO:SIC:s=4a/):v	!	!
4r	.	4e 4A/	.	4aa/)	4g\	.	.	.	.	.	.	.	.	4a/	.	4aa\)
!	!	!	!	!LO:SIC:s=4bb'/:v	!	!	!	!	!	!	!	!	!	!LO:SIC:s=4b'/:v	!	!
4r	.	4e 4A/	.	4bb/	4g\	.	.	.	.	.	.	.	.	4b/	.	4bb'\
*	*	*Xrep	*	*	*	*	*	*	*	*	*	*	*	*	*	*
=23	=23	=23	=23	=23	=23	=23	=23	=23	=23	=23	=23	=23	=23	=23	=23	=23
!	!	!	!	!LO:SIC:s=2bb^/:v	!	!	!	!	!	!	!	!	!	!	!	!LO:SIC:s=2bb^\:v
4D\	.	4r	.	2bb/	4r	.	2.ryy	2.F#/	.	2.e\	.	.	.	2b^\	.	2bb\
4r	.	4d 4A/	.	.	4f#\	.	.	.	.	.	.	.	.	.	.	.
4r	.	4d 4A/	.	4aa/	4f#\	.	.	.	.	.	.	.	.	4a\	.	4aa\
=24	=24	=24	=24	=24	=24	=24	=24	=24	=24	=24	=24	=24	=24	=24	=24	=24
*	*	*rep	*	*	*	*	*	*	*	*	*	*	*	*	*	*
4d\	.	4r	.	2ff#/	4r	.	2.ryy	2F#/	.	2d\	.	.	.	2f#/	.	2ff#\
4r	.	4d 4A/	.	.	4f#\	.	.	.	.	.	.	.	.	.	.	.
4r	.	4d 4A/	.	4dd/	4f#\	.	.	4r	.	4r	.	.	.	4d/	.	4dd\
*	*	*Xrep	*	*	*	*	*	*	*	*	*	*	*	*	*	*
!LO:LB:g=original	!	!	!	!LO:LB:g=original	!LO:LB:g=original	!	!	!	!	!	!	!	!	!	!	!LO:LB:g=original
=25	=25	=25	=25	=25	=25	=25	=25	=25	=25	=25	=25	=25	=25	=25	=25	=25
!	!	!	!	!	!	!	!	!LO:TX:a:t=4:mod=	!	!	!	!	!	!	!	!
4A\	.	4r	.	(<4aa/	4r	.	2.ryy	0.r	.	0.r	.	0.r	.	(4a\	.	(4aa\
4r	.	4e 4A/	.	4bb/)	4g\	.	.	.	.	.	.	.	.	4b\)	.	4bb\)
!	!	!	!	!LO:SIC:s=4aa'/:v	!	!	!	!	!	!	!	!	!	!	!	!
4r	.	4e 4A/	.	4aa/	4g\	.	.	.	.	.	.	.	.	4a'\	.	4aa'\
!	!	!LO:LB:g=original	!	!	!	!	!	!	!	!	!	!	!	!	!	!
=26	=26	=26	=26	=26	=26	=26	=26	=26	=26	=26	=26	=26	=26	=26	=26	=26
!	!	!	!	!LO:SIC:s=(4gg/:v	!	!	!	!	!	!	!	!	!	!	!	!
4AA/	.	4r	.	4gg/	4r	.	2.ryy	.	.	.	.	.	.	(4g\	.	(4gg\
!	!	!	!	!LO:SIC:s=4ee/):v	!	!	!	!	!	!	!	!	!	!	!	!
4r	.	4e 4A/	.	4ee/	4g\	.	.	.	.	.	.	.	.	4e\)	.	4ee\)
!	!	!	!	!LO:SIC:s=4ff#'/:v	!	!	!	!	!	!	!	!	!	!	!	!
4r	.	4e 4A/	.	4ff#/	4g\	.	.	.	.	.	.	.	.	4f#'\	.	4ff#'\
=27	=27	=27	=27	=27	=27	=27	=27	=27	=27	=27	=27	=27	=27	=27	=27	=27
4D\	.	4r	.	(<4dd/	4r	.	2.ryy	.	.	.	.	.	.	(4d\	.	(4dd\
4r	.	4d 4A/	.	4ff#/)	4f#\	.	.	.	.	.	.	.	.	4f#\)	.	4ff#\)
!	!	!	!	!LO:SIC:s=4aa'/:v	!	!	!	!	!	!	!	!	!	!	!	!
4r	.	4d 4A/	.	4aa/	4f#\	.	.	.	.	.	.	.	.	4a'\	.	4aa'\
!	!	!	!	!	!	!	!	!	!	!	!	!	!	!LO:LB:g=original	!	!
=28	=28	=28	=28	=28	=28	=28	=28	=28	=28	=28	=28	=28	=28	=28	=28	=28
*	*	*rep	*	*	*	*	*	*	*	*	*	*	*	*	*	*
!	!	!	!	!	!	!	!	!	!	!	!	!	!	!LO:MO:mod=!null:null	!	!
!	!	!	!	!	!	!	!	!	!	!	!	!	!	!LO:N:vis=2.	!	!
4d\	.	4r	.	2ddd/	4r	.	2.ryy	.	.	.	.	.	.	2dd\	.	2ddd\
4r	.	4d 4A/	.	.	4f#/	.	.	.	.	.	.	.	.	.	.	.
4r	.	4d 4A/	.	4ccc#/	4f#/	.	.	.	.	.	.	.	.	4cc#\	.	4ccc#\
*	*	*Xrep	*	*	*	*	*	*	*	*	*	*	*	*	*	*
!	!	!	!	!	!	!	!	!	!	!	!	!LO:LB:g=original	!	!	!	!
=29	=29	=29	=29	=29	=29	=29	=29	=29	=29	=29	=29	=29	=29	=29	=29	=29
*	*	*	*	*	*	*	*	*	*	*	*	*2\right	*	*	*	*
!	!	!	!	!	!	!	!	!	!LO:DY:rj	!	!LO:DY:rj	!LO:SIC:s=2.b 2.d\:v	!LO:DY:rj	!	!	!
4E\	.	4r	.	(<4bb/	4r	.	2.ryy	2.d\	f	2.e\	f	2.a 2.d\	f	(4b\	.	(4bb\
4r	.	4d 4B/	.	4aa/)	4g#X\	.	.	.	.	.	.	.	.	4a\)	.	4aa\)
!	!	!	!	!LO:SIC:s=4bb'/:v	!	!	!	!	!	!	!	!	!	!	!	!
4r	.	4d 4B/	.	4bb/	4g#\	.	.	.	.	.	.	.	.	4b'\	.	4bb'\
=30	=30	=30	=30	=30	=30	=30	=30	=30	=30	=30	=30	=30	=30	=30	=30	=30
!	!	!	!	!LO:SIC:s=(4aa/:v	!	!	!	!	!	!	!	!	!	!	!	!
4A\	.	4r	.	4aa/	4r	.	2.ryy	2.A/	.	2.e\	.	2.e 2.c#\	.	(4a\	.	(4aa\
!	!	!	!	!LO:SIC:s=4ccc#/):v	!	!	!	!	!	!	!	!	!	!	!	!
4r	.	4e 4c#/	.	4ccc#/	4a\	.	.	.	.	.	.	.	.	4cc#\)	.	4ccc#\)
!	!	!	!	!LO:SIC:s=4eee'/:v	!	!	!	!	!	!	!	!	!	!	!	!
4r	.	4e 4c#/	.	4eee/	4a\	.	.	.	.	.	.	.	.	4ee'\	.	4eee'\
=31	=31	=31	=31	=31	=31	=31	=31	=31	=31	=31	=31	=31	=31	=31	=31	=31
!	!	!	!	!LO:SIC:s=(4ee/:v	!	!	!	!LO:SIC:s=4G#/:v	!	!	!	!	!	!	!	!LO:SIC:s=(4ee\:v
4E\	.	4d 4B/	.	4ee/	4g#X\	.	2.ryy	4F#/	.	4d\	.	2.d/	.	(4e\	.	4ee\
!	!	!	!	!LO:SIC:s=4ff#/):v	!	!	!	!LO:SIC:s=4B/:v	!	!	!	!	!	!	!	!LO:SIC:s=4ff#\):v
4E\	.	4d 4B/	.	4ff#/	4g#\	.	.	4A/	.	4e\	.	.	.	4f#\)	.	4ff#\
!	!	!	!	!LO:SIC:s=4gg#'/:v	!	!	!	!LO:SIC:s=4B/:v	!	!	!	!	!	!	!	!LO:SIC:s=4gg#'\:v
4E\	.	4d 4B/	.	4gg#X/	4g#\	.	.	4A/	.	4e\	.	.	.	4g#'\	.	4gg#X\
!	!	!	!	!LO:LB:g=original	!LO:LB:g=original	!	!	!	!	!	!	!	!	!	!	!
=32	=32	=32	=32	=32	=32	=32	=32	=32	=32	=32	=32	=32	=32	=32	=32	=32
4AA/	.	2e 2c#/	.	2aa/	2a\	.	2.ryy	2A/	.	2e\	.	2c#/	.	2a\	.	2aa\
4A\	.	.	.	.	.	.	.	.	.	.	.	.	.	.	.	.
4r	.	4r	.	4r	4r	.	.	4r	.	4r	.	4r	.	4r	.	4r
*	*	*	*	*v	*v	*	*	*	*	*	*	*	*	*	*	*
!!LO:TX:a:B:t= :mod=Da Capo al Fine
!LO:TX:b:i:t=Da Capo al Fine:mod=	!	!LO:TX:b:i:t=Da Capo al Fine:mod=	!	!LO:TX:b:i:t=Da Capo al Fine:mod=	!	!	!LO:TX:b:i:t=Da Capo \nal Fine:mod=	!	!LO:TX:b:i:t=Da Capo \nal Fine:mod=	!	!LO:TX:b:i:t=Da Capo al Fine:mod=	!	!LO:TX:b:i:t=Du Capo al Fine:mod=	!	!LO:TX:b:t=Da Capo al Fine:mod=
==	==	==	==	==	==	==	==	==	==	==	==	==	==	==	==
*-	*-	*-	*-	*-	*-	*-	*-	*-	*-	*-	*-	*-	*-	*-	*-
!!!system-decoration: [(g1)][(g2)][(g3)]
!!!RDF**kern: > = above
!!!RDF**kern: < = below
!!!RDF**kern: i = editorial accidental, parens
!!!filter-modern: shed -e "s/:rj/:RJ/L" | sic -sq | modori -m | tie -s | autostem -r | shed -e "s/^(X?)rep$/$1REP/I" | shed -k -e "s/([\(\)\[\]])[><]/$1/g" | shed -e "s/yy//"
!!!ENC: Marcin Jachim
!!!END: 2020-10-03
!!!ENC: Marta Lawrence
!!!END: 2021-11-02
!!!ENC-modern: Andrzej Kubiczek
!!!END-modern: 2022-06-08
